X: 1
T: Bill Maley's
M: 4/4
L: 1/8
R: reel
K: Emix
EF |: GE E2 FECE | B,EGB cBGE | B,2 Bc ^dcBA | (3GAB ef geBA |
 GE E2 FECE | B,EGB cBGE | B,2 Bc ^dBAF |1 EeBG E2 EF :|2 EeBG E2 ef ||
geBG eBGB | cB^AB fe^dc | Bcef geag | f2 eg fBef |
geBG eBGB | cB^AB fe^dc | Bgfe ^dBcd |1 e2 ^df edef :|2 e2 ^df e4 ||
